X: 1234
T: An Dro Des Petits Bateaux
R: reel
M: 4/4
K: Dmajor
f2 d2 a2 d2|ed e/f/g f2 de|f2 ed a2 de|fdec d4:|
|:f2 de f2 de|f2 g2 e2 a2|a2 d2 a2 d2|ed e/f/g f2 de|
f2 de f2 de|f2 g2 e2 a2|a2 d2 a2 de|fdec d4:|
|:f2 d2 a2 d2|edeg f2 de|f2 ed a2 de|1 fdec dABd:|2 fdec d4||
f2 de fBde|f2 g2 e2 a2|a2 d2 a2 d2|ed e/f/g f2 de|
fBde fBde|f2 g2 e2 a2|a2 d2 a2 de|fdec d4|
f2 de fBde|f2 g2 e2 b2|a2 d2 a2 d2|ed e/f/g f2 de|
fBde fBde|f2 g2 e2 a2|a2 d2 a2 de|fdec d4|
f2 d2 a2 d2|ed e/f/g f2 de|f2 ed a2 de|1 fdec d3 e:|2 fdec d4||
f2 de f2 de|f2 g2 e2 a2|a2 d2 a2 d2|ed e/f/g f2 de|
f2 de f2 de|f2 g2 e2 a2|a2 d2 a2 de|fdec d4|
f2 de f2 de|f2 g2 e2 b2|a2 d2 a2 d2|ed e/f/g f2 de|
f2 de f2 de|f2 g2 e2 a2|a2 d2 a2 de|fdec d4|

